!!!!SEGMENT: pl-kk--kk-i-389--005-007_anonim--missa-no-5-agnus.krn
!!!cenid: 17xx:2490
!!!COM: Anonim
!!!COM-rismID: pe30004985
!!!CDT:
!!!CNT:
!!!OPR: [Missa] No. 5.
!!!OTL: Agnus
!!!OMV: 007
!!!PDT:
!!!AGN: Sacred; Mass
!!!YEC: Copyright 2022 Narodowy Instytut Fryderyka Chopina (https://polishscores.org)
!!!YEM: License CC-BY-4.0 (https://creativecommons.org/licenses/by/4.0)
!!!SMS-siglum: PL-Kk
!!!SMS-shelfmark: Kk.I.389
!!!SMS-variant:
!!!SMS-altvar:
!!!SMS-shelfwork: 005-007 M
!!!NIFC-rismSourceID: 1001146182
!!!NIFC-rismChildID: 1001146646
!!!NIFC-islandoraID: pl-kk:6976
!!!URL-pdf-islandora: https://repozytorium.nifc.pl/islandora/object/pl-kk%3A6976/datastream/PDF/view
!!!URL-scan: https://polish.musicsources.pl/pl/lokalizacje/galeria/rekopisy/5999/1 @EN{Scan on Polish Music Sources Website} @PL{Skany w portalu Dziedzictwo Muzyki Polskiej w otwartym dostępie}
!!!IIIF:
!!!ONB-nifc: UWAGA: S – skan 9-10, A – 28-29 , T – 47-48 , B – 66-67 . Części Mszy: Rorate, Kyrie, Gloria, Graduale, Sanctus, Benedictus, Agnus.
!!!AIN: 1 alto 1 bass 1 soprn 1 tenor
!!!key: C
**kern	**text	**kern	**text	**kern	**text	**kern	**text
*part4	*part4	*part3	*part3	*part2	*part2	*part1	*part1
*staff4	*staff4	*staff3	*staff3	*staff2	*staff2	*staff1	*staff1
*I"Basso.	*	*I"Tenore.	*	*I"Alto.	*	*I"Soprano.	*
*I'[B]	*	*I'[T]	*	*I'[A]	*	*I'[S]	*
*ICvox	*	*ICvox	*	*ICvox	*	*ICvox	*
*Ibass	*	*Itenor	*	*Ialto	*	*Isoprn	*
*clefF4	*	*clefC4	*	*clefC3	*	*clefC1	*
*k[]	*	*k[]	*	*k[]	*	*k[]	*
*C:	*	*C:	*	*C:	*	*C:	*
*M3/2	*	*M3/2	*	*M3/2	*	*M3/2	*
=1	=1	=1	=1	=1	=1	=1	=1
!!LO:TX:t=P:problem:all\right	!	!	!	!	!	!	!
*	*	*2\right	*	*2\right	*	*2\right	*
2C/	A-	2c\	A-	2g\	A-	2ee\	A-
2D/	.	2B\	.	2f\	.	2dd\	.
4E/	.	2G/	-gnus	2e\	-gnus	2cc\	-gnus
4F/	-gnus	.	.	.	.	.	.
=2	=2	=2	=2	=2	=2	=2	=2
*2\right	*	*	*	*	*	*	*
2G\	De-	2G/	De-	2e\	De-	2cc\	De-
2G\	-i	2G/	-i	2d\	-i	2b\	-i
2G\	qui	2G/	qui	4d\	qui	4b\	qui
.	.	.	.	4e\	.	4cc\	.
=3	=3	=3	=3	=3	=3	=3	=3
1G	tol-	1B	tol-	2f\	tol-	2dd\	tol-
.	.	.	.	2d\	-lis	2b\	.
2C/	-lis	2G/	-lis	2e\	pec-	2cc\	-lis
=4	=4	=4	=4	=4	=4	=4	=4
2C/	pec-	2c\	pec-	2g\	-ca-	2ee\	pec-
2F\	-ca-	2A\	-ca-	2f\	.	2dd\	-ca-
2F#X\	-ta	2A\	-ta	2e\	-ta	2cc\	-ta
=5	=5	=5	=5	=5	=5	=5	=5
2G\	mun-	2G/	mun-	2e\	mun-	2cc\	mun-
2G\	-di	2G/	-di	2d\	-di	2b\	-di,
2r	.	2r	.	2r	.	2r	.
=6	=6	=6	=6	=6	=6	=6	=6
2C/	A-	2c\	A-	2g\	a-	2ee\	A-
2D/	.	2B\	.	2f\	.	2dd\	.
4E\	-gnus	2G/	-gnus	2e\	-gnus	2cc\	-gnus
4F\	.	.	.	.	.	.	.
!	!	!LO:LB:g=original	!	!LO:LB:g=original	!	!LO:LB:g=original	!
=7	=7	=7	=7	=7	=7	=7	=7
2G\	De-	2G/	De-	2e\	De-	2cc\	De-
!LO:LB:g=original	!	!	!	!	!	!	!
2GG/	-i	2G/	-i	2d\	-i	2b\	-i
2G\	qui	2G/	qui	4d\	qui	4b\	qui
.	.	.	.	4e\	.	4cc\	.
=8	=8	=8	=8	=8	=8	=8	=8
1G	tol-	1B	tol-	2f\	tol-	2dd\	tol-
.	.	.	.	2d\	.	2b\	.
2C/	-lis	2G/	-lis	2e\	-lis	2cc\	-lis
=9	=9	=9	=9	=9	=9	=9	=9
2C/	pec-	2c\	pec-	2g\	pec-	2ee\	pec-
2F\	-ca-	2A\	-ca-	2f\	-ca-	2dd\	-ca-
2F#X\	-ta	2A\	-ta	2e\	-ta	2cc\	-ta
=10	=10	=10	=10	=10	=10	=10	=10
2G\	mun-	2G/	mun-	2e\	mun-	2cc\	mun-
2GG/	-di	2G/	-di	2d\	-d[i]	2b\	-di
2r	.	2r	.	2r	.	2r	.
=11|:	=11|:	=11	=11	=11|:	=11	=11	=11
2G\	Mi-	4d\	mi-	2B/	mi-	4ff\	mi-
.	.	4c\	.	.	.	4ee\	.
2B\	.	4B\	.	2d/	.	4dd\	.
.	.	4A\	.	.	.	4cc\	.
2G\	-se-	4G/	-se-	2f\	-se-	4b\	.
.	.	4F/	.	.	.	4a\	-se-
=12	=12	=12	=12	=12	=12	=12	=12
2c\	-re-	2E/	-re-	1g	-re-	2g\	-re-
2G\	.	2D/	.	.	.	2f/	.
2C/	-re	2C/	-re,	2g\	-re	2e/	-re
!	!	!	!	!	!	!LO:LB:g=original	!
=13	=13	=13	=13	=13	=13	=13	=13
4d\	Mi-	2G/	mi-	4f\	mi-	2b\	mi-
4c\	.	.	.	4e\	.	.	.
4B\	.	2B\	.	4d\	.	2dd\	.
4A\	.	.	.	4f\	.	.	.
4G\	-se-	2G/	-se-	4e\	.	2b\	-se-
4F\	.	.	.	4d\	-se-	.	.
!	!	!LO:LB:g=original	!	!LO:LB:g=original	!	!	!
=14	=14	=14	=14	=14	=14	=14	=14
2E\	-re-	2c\	-re-	2g\	-re-	1g	-re-
2D\	.	2B\	.	2f\	.	.	.
2C/	-re	2G/	-re	2e\	-re	2cc\	-re
!LO:LB:g=original	!	!	!	!	!	!	!
=15	=15	=15	=15	=15	=15	=15	=15
2F\	no-	2A/	no-	2d\	no-	2a\	no-
2G\	.	1G	.	2e\	.	2cc\	.
2GG/	.	.	.	2d\	.	2b\	.
=16	=16	=16	=16	=16	=16	=16	=16
1C	-bis	1.G	-bis,	1e	-bis	1cc	-bis
2r	.	.	.	2r	.	2r	.
=17:|	=17	=17	=17	=17:|	=17	=17	=17
!LO:TX:t=P:problem:takty 17-22 zapisane repetycją	!	!	!	!LO:TX:t=P:problem:takty 17-22 zapisane repetycją	!	!	!
2G\yy	Mi-	4d\	Mi-	2B/yy	mi-	4ff\	mi-
.	.	4c\	.	.	.	4ee\	.
2B\yy	.	4B\	.	2d/yy	.	4dd\	.
.	.	4A\	.	.	.	4cc\	.
[2G\yy	-se-	4G/	-se-	[2f\yy	-se-	4b\	.
.	.	4F/	.	.	.	4a\	-se-
=18	=18	=18	=18	=18	=18	=18	=18
2c\]yy	-re-	2E/	-re-	1g]yy	-re-	2g\	-re-
2G\yy	.	2D/	.	.	.	2f/	.
[2C/yy	-re	2C/	-re	[2g\yy	-re	2e/	-re
=19	=19	=19	=19	=19	=19	=19	=19
4d\]yy	Mi-	2G/	mi-	4f\]yy	mi-	2b\	mi-
4c\yy	.	.	.	4e\yy	.	.	.
4B\yy	.	2B\	.	4d\yy	.	2dd\	.
4A\yy	.	.	.	4f\yy	.	.	.
4G\yy	-se-	2G/	-se-	4e\yy	.	2b\	-se-
[4F\yy	.	.	.	[4d\yy	-se-	.	.
!	!	!	!	!	!	!LO:PB:g=original	!
=20	=20	=20	=20	=20	=20	=20	=20
2E\]yy	-re-	2c\	-re-	2g\]yy	-re-	1g	-re-
2D\yy	.	2B\	.	2f\yy	.	.	.
[2C/yy	-re	2G/	-re	[2e\yy	-re	2cc\	-re
!	!	!LO:LB:g=original	!	!	!	!	!
=21	=21	=21	=21	=21	=21	=21	=21
2F\]yy	no-	2A/	no-	2d\]yy	no-	2a\	no-
2G\yy	.	1G	.	2e\yy	.	2cc\	.
[2GG/yy	.	.	.	[2d\yy	.	2b\	.
=22	=22	=22	=22	=22	=22	=22	=22
1C]yy	-bis	1G	-bis,	1e]yy	-bis	1cc	-bis
2ryy	.	2r	.	2ryy	.	2r	.
=23||	=23||	=23||	=23||	=23||	=23||	=23||	=23||
*M2/2	*	*M2/2	*	*M2/2	*	*M2/2	*
*met(C.|)	*	*met(C.|)	*	*met(C.|)	*	*met(C.|)	*
4C\	A-	2.G/	A-	2.e\	A-	2.cc\	A-
4E\	.	.	.	.	.	.	.
4G\	.	.	.	.	.	.	.
4c\	-gnus	4G/	-gnus	4e\	-gnus	4cc\	-gnus
=24	=24	=24	=24	=24	=24	=24	=24
4G\	De-	4G/	De-	8e\L	De-	8cc\L	De-
.	.	.	.	8d\J	.	8b\J	.
4GG/	-i	4G/	-i	4d\	-i	4b\	-i
2r	.	2r	.	2r	.	2r	.
=25	=25	=25	=25	=25	=25	=25	=25
4G\	A-	4B/	A-	2.f\	A-	2.dd\	A-
4A\	.	4A/	.	.	.	.	.
4B\	.	4G/	.	.	.	.	.
4G\	-gnus	4B/	-gnus	4f\	-gnus	4dd\	-gnus
=26	=26	=26	=26	=26	=26	=26	=26
4c\	De-	4G/	De-	8f\L	De-	8dd\L	De-
.	.	.	.	8e\J	.	8cc\J	.
2C/	-i	2G/	-i	2e\	-i	2cc\	-i
4C/	qui	4c\	qui	4g\	qui	4ee\	qui
!	!	!	!	!LO:LB:g=original	!	!LO:LB:g=original	!
=27	=27	=27	=27	=27	=27	=27	=27
4.C/	tol-	4.c\	tol-	4.g\	tol-	4.ee\	tol-
8BB/	.	8B\	.	8f\	.	8dd\	.
4C/	-li[s]	4G/	-lis	4e\	-lis	4cc\	-lis
4c\	pec-	4c\	pec-	4g\	pec-	4ee\	pec-
!LO:LB:g=original	!	!LO:LB:g=original	!	!	!	!	!
=28	=28	=28	=28	=28	=28	=28	=28
4G\	-ca-	4d\	-ca-	4f\	-ca-	4dd\	-ca-
4G\	-ta	4d\	-ta	4e\	-ta	4cc\	-ta
4G\	mun-	2d\	mun-	4d\	mun-	4b\	mun-
4F#X\	.	.	.	4e\	.	4cc\	.
=29	=29	=29	=29	=29	=29	=29	=29
2G\	-di	2d\	-di	2d\	-di	2b\	-di
4r	.	4r	.	4r	.	4r	.
4C/	qui	4c\	qui	4g\	qui	4ee\	qui
=30	=30	=30	=30	=30	=30	=30	=30
4.C/	tol-	4.c\	tol-	4.g\	tol-	4.ee\	tol-
8BB/	.	8B\	.	8f\	.	8dd\	.
4C/	-lis	4G\	-lis	4e\	-lis	4cc\	-lis
4c\	pec-	4c\	pec-	4g\	pec-	4ee\	pec-
=31	=31	=31	=31	=31	=31	=31	=31
4G\	-ca-	4d\	-ca-	4f\	-ca-	4dd\	-ca-
4F#X\	-ta	4d\	-ta	4e\	-ta	4cc\	-ta
4G\	mun-	2d\	mun-	(4d\	mun-	4b\	mun-
4F#\	.	.	.	4e\)	.	4cc\	.
=32	=32	=32	=32	=32	=32	=32	=32
!	!	!	!	!	!	!LO:N:vis=1.	!
!LO:TX:b:i:t=Dona nobis ut Kyrie.	!	!LO:TX:b:i:t=Dona nobis ut Kyrie.	!	!LO:TX:b:i:t=Dona nobis\nut Kyrie.	!	!LO:TX:b:i:t=Dona nobis\nut Kyrie	!
2G\	-di.	1G	-di	2d\	-di	1b	-di.
2r	.	.	.	2r	.	.	.
==	==	==	==	==	==	==	==
*-	*-	*-	*-	*-	*-	*-	*-
!!!system-decoration: [(s1,s2,s3,s4)]
!!!ENC: Anastazja Marusiak
!!!END: 2023-11-08
!!!EED: Jan Barakat
!!!EEV: 2023-12-01
!!!YEM: Copyright © 2023 by [Copyright Holder]
